X:10
T:Amazing Grace
M:3/4
Q:1/4=56
K:D
e2
|:{/g}Ad|{/gdG}d4{/g}f1e/2d/2|{/g}f4{/g}f1e1|{/Gdc}d4{/g}B2|{/G}A4{/g}Ad|!
{/gdG}d4{/g}f1e/2d/2|{/g}f4{/g}e1f1|{/ag}a6|{/g}a4f1a1|!
{/g}a4f1e/2d/2|{/g}f4{/g}f1e|{/Gdc}d4{/g}B2|{/G}A4{/g}Ad|!
{/gdG}d4{/g}f1e/2d/2|{/g}f4{/g}e2|1  {/Gdc}d6|{/gdG}d4:|2  {/gef}e6|{/Gdc}d6|]

